src/components/content/Icon/icons/tonnage.svg

<svg width="24" height="24" viewBox="0 0 24 24" fill="none" xmlns="http://www.w3.org/2000/svg">
<g clip-path="url(#clip0_5259_5197)">
<path d="M23.4981 21.262L19.0541 8.47003C18.9718 8.25018 18.8235 8.06112 18.6297 7.92867C18.4359 7.79622 18.2059 7.72685 17.9711 7.73003H15.7771C16.2339 7.02798 16.463 6.20208 16.4331 5.36503C16.3761 3.14203 14.5531 1.29103 12.3301 1.20503C11.7534 1.17727 11.1772 1.2693 10.6378 1.47532C10.0984 1.68134 9.60751 1.99687 9.19612 2.40203C8.77989 2.79858 8.44901 3.27594 8.22375 3.80487C7.9985 4.33379 7.88361 4.90314 7.88612 5.47803C7.88612 6.30503 8.11412 7.07403 8.54112 7.75803H6.34712C5.86312 7.75803 5.43612 8.07103 5.26512 8.52703L0.877122 21.262C0.735122 21.603 0.792122 22.002 1.02012 22.316C1.22012 22.629 1.59012 22.8 1.96012 22.8H22.4151C22.7851 22.8 23.1281 22.63 23.3551 22.316C23.5841 22.002 23.6121 21.604 23.4981 21.262ZM9.82312 8.86903C9.93996 8.86855 10.054 8.83304 10.1504 8.76708C10.2469 8.70112 10.3213 8.60774 10.3641 8.49903C10.4027 8.38961 10.4071 8.27104 10.3768 8.15905C10.3464 8.04707 10.2827 7.94696 10.1941 7.87203C9.83895 7.5759 9.55286 7.20566 9.35593 6.78726C9.159 6.36887 9.05598 5.91245 9.05412 5.45003C9.05412 4.59503 9.39612 3.79803 10.0231 3.20003C10.3277 2.904 10.6892 2.67299 11.0858 2.52103C11.4824 2.36906 11.9057 2.29931 12.3301 2.31603C13.9541 2.37303 15.2931 3.74103 15.3221 5.36503C15.3362 5.83803 15.2406 6.30788 15.0429 6.73778C14.8451 7.16769 14.5505 7.54597 14.1821 7.84303C14.0935 7.91796 14.0298 8.01807 13.9995 8.13005C13.9691 8.24204 13.9735 8.36061 14.0121 8.47003C14.0971 8.69803 14.2961 8.84003 14.5521 8.84003H18.0001L22.4151 21.632H1.96012L6.37612 8.86903H9.82312Z" fill="#0B301A"/>
<path d="M12.1821 6.47003C12.6281 6.47003 12.9981 6.11003 12.9981 5.65303C12.9992 5.54552 12.9788 5.43889 12.9382 5.33935C12.8976 5.23981 12.8375 5.14936 12.7616 5.0733C12.6856 4.99723 12.5952 4.93707 12.4957 4.89633C12.3962 4.85559 12.2896 4.83509 12.1821 4.83603C12.0745 4.83496 11.9678 4.85536 11.8682 4.89604C11.7686 4.93672 11.6781 4.99686 11.602 5.07294C11.526 5.14902 11.4658 5.23951 11.4251 5.33911C11.3845 5.43872 11.3641 5.54544 11.3651 5.65303C11.3651 6.11003 11.7351 6.47003 12.1821 6.47003ZM12.1821 5.28203C12.3891 5.28203 12.5621 5.45703 12.5621 5.66403C12.5606 5.76433 12.52 5.86009 12.4491 5.93102C12.3782 6.00195 12.2824 6.04248 12.1821 6.04403C12.0816 6.04274 11.9856 6.00232 11.9145 5.93136C11.8433 5.8604 11.8027 5.7645 11.8011 5.66403C11.8011 5.44603 11.9751 5.28303 12.1811 5.28303L12.1821 5.28203Z" fill="#0B301A"/>
<path d="M23.4981 21.262L19.0541 8.47003C18.9718 8.25018 18.8235 8.06112 18.6297 7.92867C18.4359 7.79622 18.2059 7.72685 17.9711 7.73003H15.7771C16.2339 7.02798 16.463 6.20208 16.4331 5.36503C16.3761 3.14203 14.5531 1.29103 12.3301 1.20503C11.7534 1.17727 11.1772 1.2693 10.6378 1.47532C10.0984 1.68134 9.60751 1.99687 9.19612 2.40203C8.77989 2.79858 8.44901 3.27594 8.22375 3.80487C7.9985 4.33379 7.88361 4.90314 7.88612 5.47803C7.88612 6.30503 8.11412 7.07403 8.54112 7.75803H6.34712C5.86312 7.75803 5.43612 8.07103 5.26512 8.52703L0.877122 21.262C0.735122 21.603 0.792122 22.002 1.02012 22.316C1.22012 22.629 1.59012 22.8 1.96012 22.8H22.4151C22.7851 22.8 23.1281 22.63 23.3551 22.316C23.5841 22.002 23.6121 21.604 23.4981 21.262ZM9.82312 8.86903C9.93996 8.86855 10.054 8.83304 10.1504 8.76708C10.2469 8.70112 10.3213 8.60774 10.3641 8.49903C10.4027 8.38961 10.4071 8.27104 10.3768 8.15905C10.3464 8.04707 10.2827 7.94696 10.1941 7.87203C9.83895 7.5759 9.55286 7.20566 9.35593 6.78726C9.159 6.36887 9.05598 5.91245 9.05412 5.45003C9.05412 4.59503 9.39612 3.79803 10.0231 3.20003C10.3277 2.904 10.6892 2.67299 11.0858 2.52103C11.4824 2.36906 11.9057 2.29931 12.3301 2.31603C13.9541 2.37303 15.2931 3.74103 15.3221 5.36503C15.3362 5.83803 15.2406 6.30788 15.0429 6.73778C14.8451 7.16769 14.5505 7.54597 14.1821 7.84303C14.0935 7.91796 14.0298 8.01807 13.9995 8.13005C13.9691 8.24204 13.9735 8.36061 14.0121 8.47003C14.0971 8.69803 14.2961 8.84003 14.5521 8.84003H18.0001L22.4151 21.632H1.96012L6.37612 8.86903H9.82312Z" stroke="#0B301A" stroke-width="0.8"/>
<path d="M12.1821 6.47003C12.6281 6.47003 12.9981 6.11003 12.9981 5.65303C12.9992 5.54552 12.9788 5.43889 12.9382 5.33935C12.8976 5.23981 12.8375 5.14936 12.7616 5.0733C12.6856 4.99723 12.5952 4.93707 12.4957 4.89633C12.3962 4.85559 12.2896 4.83509 12.1821 4.83603C12.0745 4.83496 11.9678 4.85536 11.8682 4.89604C11.7686 4.93672 11.6781 4.99686 11.602 5.07294C11.526 5.14902 11.4658 5.23951 11.4251 5.33911C11.3845 5.43872 11.3641 5.54544 11.3651 5.65303C11.3651 6.11003 11.7351 6.47003 12.1821 6.47003ZM12.1821 5.28203C12.3891 5.28203 12.5621 5.45703 12.5621 5.66403C12.5606 5.76433 12.52 5.86009 12.4491 5.93102C12.3782 6.00195 12.2824 6.04248 12.1821 6.04403C12.0816 6.04274 11.9856 6.00232 11.9145 5.93136C11.8433 5.8604 11.8027 5.7645 11.8011 5.66403C11.8011 5.44603 11.9751 5.28303 12.1811 5.28303L12.1821 5.28203Z" stroke="#0B301A" stroke-width="0.8"/>
</g>
<defs>
<clipPath id="clip0_5259_5197">
<rect width="24" height="24" fill="white"/>
</clipPath>
</defs>
</svg>

<svg xmlns="http://www.w3.org/2000/svg" width="24" height="24" fill="none" viewBox="0 0 24 24"><g clip-path="url(#a)"><path fill="#0b301a" d="M23.498 21.262 19.054 8.47a1.14 1.14 0 0 0-1.083-.74h-2.194a4.07 4.07 0 0 0 .656-2.365c-.057-2.223-1.88-4.074-4.103-4.16a4.18 4.18 0 0 0-3.134 1.197 4.22 4.22 0 0 0-1.31 3.076c0 .827.228 1.596.655 2.28H6.347c-.484 0-.91.313-1.082.769L.877 21.262c-.142.341-.085.74.143 1.054.2.313.57.484.94.484h20.455a1.146 1.146 0 0 0 1.083-1.538M9.823 8.869a.58.58 0 0 0 .541-.37.57.57 0 0 0-.17-.627 3.17 3.17 0 0 1-1.14-2.422c0-.855.342-1.652.97-2.25a3.13 3.13 0 0 1 2.306-.884c1.624.057 2.963 1.425 2.992 3.049a3.07 3.07 0 0 1-1.14 2.478.57.57 0 0 0-.17.627c.085.228.284.37.54.37H18l4.415 12.792H1.96L6.376 8.869z"/><path fill="#0b301a" d="M12.182 6.47c.446 0 .816-.36.816-.817a.81.81 0 0 0-.816-.817.81.81 0 0 0-.817.817c0 .457.37.817.817.817m0-1.188c.207 0 .38.175.38.382a.386.386 0 0 1-.38.38.386.386 0 0 1-.38-.38c0-.218.173-.381.38-.381z"/><path stroke="#0b301a" stroke-width=".8" d="M23.498 21.262 19.054 8.47a1.14 1.14 0 0 0-1.083-.74h-2.194a4.07 4.07 0 0 0 .656-2.365c-.057-2.223-1.88-4.074-4.103-4.16a4.18 4.18 0 0 0-3.134 1.197 4.22 4.22 0 0 0-1.31 3.076c0 .827.228 1.596.655 2.28H6.347c-.484 0-.91.313-1.082.769L.877 21.262c-.142.341-.085.74.143 1.054.2.313.57.484.94.484h20.455a1.146 1.146 0 0 0 1.083-1.538ZM9.823 8.869a.58.58 0 0 0 .541-.37.57.57 0 0 0-.17-.627 3.17 3.17 0 0 1-1.14-2.422c0-.855.342-1.652.97-2.25a3.13 3.13 0 0 1 2.306-.884c1.624.057 2.963 1.425 2.992 3.049a3.07 3.07 0 0 1-1.14 2.478.57.57 0 0 0-.17.627c.085.228.284.37.54.37H18l4.415 12.792H1.96L6.376 8.869z"/><path stroke="#0b301a" stroke-width=".8" d="M12.182 6.47c.446 0 .816-.36.816-.817a.81.81 0 0 0-.816-.817.81.81 0 0 0-.817.817c0 .457.37.817.817.817Zm0-1.188c.207 0 .38.175.38.382a.386.386 0 0 1-.38.38.386.386 0 0 1-.38-.38c0-.218.173-.381.38-.381z"/></g><defs><clipPath id="a"><path fill="#fff" d="M0 0h24v24H0z"/></clipPath></defs></svg>
